X:23
T:Boy in the Gap (reel), The  
T:The Boys of Cappoquin
B:CRE1.132 (Buachaill sa mBearna)
F:file ID: cre.1/023boy_gap
S:Sonny Brogan
N:Note that this version is ABB.
M:C
L:1/8
Q:180
R:reel
K:D
D2FA d2cB|(3ABA GE A2GE|D2FA decB|(3ABA GE EDD2|
D2FA d2cB|A2GE A2GE|D2FA d2cB|A2GE EDD2||
fefg fedf|edef edcB|ABcd edcd|eaag eaa2|
fefg fedf|edef edcB|ABcd  efdB|A2GE EDD2:|

%%%

